X: 39482
T: Tatnuck Magnet, The
R: reel
M: 4/4
K: Gmajor
|:ABBd dBAG|DEEc cBGE|DB,B,B, DEGA|BBcB AGEG|
ABBd dBAG|DEEc cBGE|DB,B,B, DEGB|AABA GDEG:|
|:Bddd dgfg|edge dBGB|cccd ABBd|BAAB AGEA|
Bddd dgfg|edge dBGB|cccd BDGB|ADFA GABc|
Bddd dgfg|edge dBGB|cccd ABBd|BAAB AGEA|
BBBd gdeg|dBGB AGEG|cccB AGEG|AEGA GDEG||

